test-site/images/icons/instagram_simple_icon.svg

<?xml version="1.0" encoding="UTF-8" standalone="no"?>
<!DOCTYPE svg PUBLIC "-//W3C//DTD SVG 1.1//EN" "http://www.w3.org/Graphics/SVG/1.1/DTD/svg11.dtd">
<svg width="100%" height="100%" viewBox="0 0 512 512" version="1.1" xmlns="http://www.w3.org/2000/svg" xmlns:xlink="http://www.w3.org/1999/xlink" xml:space="preserve" xmlns:serif="http://www.serif.com/" style="fill-rule:evenodd;clip-rule:evenodd;stroke-linejoin:round;stroke-miterlimit:1.41421;">
    <path d="M256,71.54C316.08,71.54 323.19,71.77 346.92,72.85C368.86,73.85 380.77,77.52 388.7,80.6C408.313,88.164 423.836,103.687 431.4,123.3C434.48,131.23 438.15,143.14 439.15,165.08C440.23,188.81 440.46,195.92 440.46,256C440.46,316.08 440.23,323.2 439.15,346.92C438.15,368.86 434.48,380.77 431.4,388.7C423.833,408.311 408.311,423.833 388.7,431.4C380.77,434.49 368.86,438.15 346.92,439.15C323.2,440.23 316.08,440.46 256,440.46C195.92,440.46 188.8,440.23 165.08,439.15C143.14,438.15 131.23,434.48 123.3,431.4C103.687,423.836 88.164,408.313 80.6,388.7C77.52,380.77 73.85,368.86 72.85,346.92C71.77,323.2 71.54,316.08 71.54,256C71.54,195.92 71.77,188.81 72.85,165.08C73.85,143.14 77.52,131.23 80.6,123.3C88.164,103.687 103.687,88.164 123.3,80.6C131.23,77.52 143.14,73.85 165.08,72.85C188.81,71.77 195.92,71.54 256,71.54M256,31C194.9,31 187.23,31.26 163.24,32.36C139.25,33.46 122.93,37.25 108.62,42.81C93.604,48.474 80.003,57.347 68.77,68.81C57.303,80.039 48.429,93.641 42.77,108.66C37.21,122.97 33.41,139.32 32.32,163.27C31.23,187.22 31,194.89 31,256C31,317.11 31.26,324.77 32.36,348.77C33.46,372.77 37.26,389.07 42.82,403.38C54.506,433.586 78.416,457.499 108.62,469.19C122.93,474.75 139.29,478.55 163.24,479.64C187.19,480.73 194.9,481 256,481C317.1,481 324.77,480.74 348.77,479.64C372.77,478.54 389.07,474.75 403.39,469.19C433.596,457.501 457.506,433.588 469.19,403.38C474.75,389.07 478.55,372.71 479.65,348.77C480.75,324.83 481,317.11 481,256C481,194.89 480.74,187.23 479.65,163.23C478.56,139.23 474.75,122.93 469.19,108.62C457.505,78.41 433.59,54.495 403.38,42.81C389.07,37.25 372.72,33.45 348.77,32.36C324.82,31.27 317.11,31 256,31Z" style="fill:rgb(36,133,214);fill-rule:nonzero;"/>
    <path d="M256,140.46C192.617,140.46 140.46,192.617 140.46,256C140.46,319.383 192.617,371.54 256,371.54C319.383,371.54 371.54,319.383 371.54,256C371.54,192.617 319.383,140.46 256,140.46ZM256,331C214.856,331 181,297.144 181,256C181,214.856 214.856,181 256,181C297.144,181 331,214.856 331,256C331,297.144 297.144,331 256,331Z" style="fill:rgb(36,133,214);fill-rule:nonzero;"/>
    <circle cx="376.1" cy="135.9" r="27" style="fill:rgb(36,133,214);"/>
</svg>

<svg id="Layer_1" data-name="Layer 1" xmlns="http://www.w3.org/2000/svg" viewBox="0 0 512 512"><title>Instagram_simple_icon</title><path d="M256,71.54c60.08,0,67.19.23,90.92,1.31,21.94,1,33.85,4.67,41.78,7.75a74.5,74.5,0,0,1,42.7,42.7c3.08,7.93,6.75,19.84,7.75,41.78,1.08,23.73,1.31,30.84,1.31,90.92s-.23,67.2-1.31,90.92c-1,21.94-4.67,33.85-7.75,41.78a74.52,74.52,0,0,1-42.7,42.7c-7.93,3.09-19.84,6.75-41.78,7.75-23.72,1.08-30.84,1.31-90.92,1.31s-67.2-.23-90.92-1.31c-21.94-1-33.85-4.67-41.78-7.75a74.5,74.5,0,0,1-42.7-42.7c-3.08-7.93-6.75-19.84-7.75-41.78-1.08-23.72-1.31-30.84-1.31-90.92s.23-67.19,1.31-90.92c1-21.94,4.67-33.85,7.75-41.78a74.5,74.5,0,0,1,42.7-42.7c7.93-3.08,19.84-6.75,41.78-7.75,23.73-1.08,30.84-1.31,90.92-1.31M256,31c-61.1,0-68.77.26-92.76,1.36s-40.31,4.89-54.62,10.45a110.29,110.29,0,0,0-39.85,26,110.12,110.12,0,0,0-26,39.85c-5.56,14.31-9.36,30.66-10.45,54.61S31,194.89,31,256s.26,68.77,1.36,92.77,4.9,40.3,10.46,54.61a115.1,115.1,0,0,0,65.8,65.81c14.31,5.56,30.67,9.36,54.62,10.45S194.9,481,256,481s68.77-.26,92.77-1.36,40.3-4.89,54.62-10.45a115.08,115.08,0,0,0,65.8-65.81c5.56-14.31,9.36-30.67,10.46-54.61S481,317.11,481,256s-.26-68.77-1.35-92.77-4.9-40.3-10.46-54.61a115.07,115.07,0,0,0-65.81-65.81c-14.31-5.56-30.66-9.36-54.61-10.45S317.11,31,256,31Z"/><path d="M256,140.46A115.54,115.54,0,1,0,371.54,256h0A115.54,115.54,0,0,0,256,140.46ZM256,331a75,75,0,1,1,75-75A75,75,0,0,1,256,331Z"/><circle cx="376.1" cy="135.9" r="27"/></svg>
